!!!!SEGMENT: pl-kk--kk-i-3--006-011_anonim--officium-primum-de-annuntiatione-de-bmv-deo-gratias.krn
!!!cenid: 15xx:588
!!!COM: Anonim
!!!COM-rismID:
!!!CDT:
!!!CNT:
!!!OPR: Officium Primum de Annuntiatione de BMV
!!!OTL: Deo gratias
!!!OMV: 011
!!!PDT:
!!!AGN:
!!!SMS-siglum: PL-Kk
!!!SMS-shelfmark: Kk.I.3
!!!SMS-shelfwork: 006-011 M
!!!SMS-variant:
!!!SMS-altvar:
!!!NIFC-rismSourceID: 1001145493
!!!NIFC-islandoraID: pl-kk:1170
!!!URL-pdf-islandora: https://repozytorium.nifc.pl/islandora/object/pl-kk%3A1170/datastream/PDF/view
!!!URL-scan: https://polish.musicsources.pl/pl/lokalizacje/galeria/rekopisy/5919 @EN{Scan on Polish Music Herritage in Open Access Website} @PL{Skany w portalu Dziedzictwo Muzyki Polskiej w otwartym dostępie}
!!!ONB-nifc: UWAGA: Discantus (s. 27v-28r, skan 0030), Tenor (s. 21r, skan 0193), Bassus (s. 24v-25r, skan 0328)
!!!AIN: 1 bass 1 tenor 1 vox
!!!key: d
**kern	**text	**kern	**text	**kern	**text
*part3	*part3	*part2	*part2	*part1	*part1
*staff3	*staff3	*staff2	*staff2	*staff1	*staff1
*I"Bassus	*	*I"Tenore	*	*I"Discantus	*
*I'B	*	*I'T	*	*I'D	*
*Ibass	*	*Itenor	*	*Ivox	*
*ICvox	*	*ICvox	*	*ICvox	*
*clefF4	*	*clefC4	*	*clefC3	*
*k[b-]	*	*k[]	*	*k[b-]	*
*d:	*	*d:	*	*d:	*
*M2/1	*	*M2/1	*	*M2/1	*
*met(C|)	*	*met(C|)	*	*met(C|)	*
=1-	=1-	=1-	=1-	=1-	=1-
2.GG/	De-	0G	De-	4G/	De-
.	.	.	.	4A/	.
.	.	.	.	4B-/	.
4AA/	.	.	.	4c/	.
2BB-/	.	.	.	2d/	.
*	*	*	*	*2\right	*
2C/	.	.	.	2e\	.
=2-	=2-	=2-	=2-	=2-	=2-
2D/	.	0D	.	2f\	.
2.BB-/	.	.	.	2.d/	.
4AA/	.	.	.	4c/	.
2GG/	.	.	.	1d\	.
=3-	=3-	=3-	=3-	=3-	=3-
1D	.	0F	.	.	.
.	.	.	.	4c/	.
.	.	.	.	4B-/	.
1D	.	.	.	1A	.
=4-	=4-	=4-	=4-	=4-	=4-
2GG/	.	0G	.	2G/	.
2.C/	.	.	.	2.g\	.
4D/	.	.	.	4f\	.
4E/	.	.	.	2e\	.
4F\	.	.	.	.	.
=5-	=5-	=5-	=5-	=5-	=5-
*2\right	*	*	*	*	*
*custos:C	*	*	*	*custos:c	*
2G\	.	0G	-o	2d/	.
!LO:PB:g=original	!	!	!	!LO:PB:g=original	!
2C/	-o	.	.	2c/	-o
2BB-/	.	.	.	2d/	.
2C/	.	.	.	2e/	.
=6-	=6-	=6-	=6-	=6-	=6-
2D/	.	0F	.	2f/	.
2.BB-/	.	.	.	1d	gra-
4C/	.	.	.	.	.
2D/	.	.	.	2d/	.
=7-	=7-	=7-	=7-	=7-	=7-
2E/	.	0G	gra-	1.c	.
2.C/	.	.	.	.	.
4D/	.	.	.	.	.
2E/	.	.	.	2B-/	.
=8-	=8-	=8-	=8-	=8-	=8-
2F/	.	0A	.	2A/	.
2.D/	.	.	.	2.F/	.
4E/	.	.	.	4G/	.
2F/	.	.	.	2A/	.
=9-	=9-	=9-	=9-	=9-	=9-
2G\	.	0B	.	2G/	.
2.GG/	gra-	.	.	1g	.
4AA/	.	.	.	.	.
*custos:C	*	*	*	*	*
1BB-/	.	.	.	2f/	.
=10-	=10-	=10-	=10-	=10-	=10-
.	.	0G	.	2g\	.
!LO:LB:g=original	!	!	!	!	!
2.C/	.	.	.	2.e-X/	.
4D/	.	.	.	4d/	.
*	*	*	*	*custos:d	*
2E/	.	.	.	2c/	.
=11-	=11-	=11-	=11-	=11-	=11-
!	!	!	!	!LO:LB:g=original	!
2D/	.	0F	-ti-	1d	.
4C/	.	.	.	.	.
4BB-/	.	.	.	.	.
1AA	.	.	.	1c	.
=12-	=12-	=12-	=12-	=12-	=12-
2GG/	.	0G;<	-as	2.B-/	.
2.G\	.	.	.	.	.
.	.	.	.	4c/	.
.	.	.	.	2d/	.
4F\	.	.	.	.	.
2.E\	.	.	.	1G/	.
=13-	=13-	=13-	=13-	=13-	=13-
.	.	0ryy	.	.	.
4D/	.	.	.	.	.
2C/	.	.	.	1c	.
1G	.	.	.	.	.
.	.	.	.	2B-/	.
=14-	=14-	=14-	=14-	=14-	=14-
2r	.	0ryy	.	2c/	.
1C	.	.	.	2e-X\	.
.	.	.	.	1d	.
2BB-/	.	.	.	.	.
=15-	=15-	=15-	=15-	=15-	=15-
1C	.	0ryy	.	2e-\	.
.	.	.	.	2c/	.
*custos:C	*	*	*	*	*
1GG	.	.	.	1d	.
=16-	=16-	=16-	=16-	=16-	=16-
!LO:LB:g=original	!	!	!	!	!
2.C/	.	0ryy	.	2c/	-ti-
.	.	.	.	2.G/	-as
4D/	.	.	.	.	.
4E/	.	.	.	.	.
4F\	.	.	.	4A/	.
2.G\	.	.	.	4B-/	.
*	*	*	*	*custos:d	*
.	.	.	.	4c/	.
=17-	=17-	=17-	=17-	=17-	=17-
!	!	!	!	!LO:LB:g=original	!
.	.	0ryy	.	2d/	.
4F\	.	.	.	.	.
1E	.	.	.	2.G/	.
.	.	.	.	4A/	.
4D/	.	.	.	4B-/	.
4C/	.	.	.	4c/	.
=18-	=18-	=18-	=18-	=18-	=18-
2BB-/	.	0ryy	.	2d/	.
1C	-ci-	.	.	1e-	.
4BB-/	-as	.	.	4d/	.
4AA/	.	.	.	4c/	.
=19-	=19-	=19-	=19-	=19-	=19-
0GG;>	.	0ryy	.	0d;>	.
=-	=-	=-	=-	=-	=-
*-	*-	*-	*-	*-	*-
!!!system-decoration: [(s1,s2,s3)]
!!!RDF**kern: < = below
!!!RDF**kern: > = above
!!!ENC: Andrzej Gręziak
!!!END: 2021-12-28
!!!ENC: Marta Chmielewska
!!!END: 2021-12-31
